svgs/duotone/envelopes-bulk.svg

<svg xmlns="http://www.w3.org/2000/svg" viewBox="0 0 640 512"><!-- Font Awesome Pro 6.0.0-alpha2 by @fontawesome - https://fontawesome.com License - https://fontawesome.com/license (Commercial License) --><defs><style>.fa-secondary{opacity:.4}</style></defs><path d="M192 192C192 156.75 220.75 128 256 128H480V32C480 14.375 465.625 0 448 0H128C110.375 0 96 14.375 96 32V224H192V192ZM576 160H256C238.375 160 224 174.375 224 192V224H320C353.25 224 380.625 249.375 383.75 281.875L384 281.625V416H576C593.625 416 608 401.625 608 384V192C608 174.375 593.625 160 576 160ZM544 288H480V224H544V288ZM183.031 413.938L32 300.176V340.238L164.109 439.75C172.406 445.672 182.125 448.641 191.891 448.641C201.75 448.641 211.672 445.609 220.219 439.5L352 340.238V300.176L201.297 413.688C195.734 417.672 188.281 417.656 183.031 413.938Z" class="fa-secondary"/><path d="M191.891 448.641C182.125 448.641 172.406 445.672 164.109 439.75L32 340.238V480C32 497.625 46.375 512 64 512H320C337.625 512 352 497.625 352 480V340.238L220.219 439.5C211.672 445.609 201.75 448.641 191.891 448.641ZM320 256H64C46.375 256 32 270.375 32 288V300.176L183.031 413.938C188.281 417.656 195.734 417.672 201.297 413.688L352 300.176V288C352 270.375 337.625 256 320 256ZM480 224V288H544V224H480Z" class="fa-primary"/></svg>

<svg xmlns="http://www.w3.org/2000/svg" viewBox="0 0 640 512"><!--! Font Awesome Pro 6.3.0 by @fontawesome - https://fontawesome.com License - https://fontawesome.com/license (Commercial License) Copyright 2023 Fonticons, Inc. --><defs><style>.fa-secondary{opacity:.4}</style></defs><path class="fa-primary" d="M191.9 448.6c-9.766 0-19.48-2.969-27.78-8.891L32 340.2V480c0 17.62 14.38 32 32 32h256c17.62 0 32-14.38 32-32v-139.8L220.2 439.5C211.7 445.6 201.8 448.6 191.9 448.6zM320 256H64C46.38 256 32 270.4 32 288v12.18l151 113.8c5.25 3.719 12.7 3.734 18.27-.25L352 300.2V288C352 270.4 337.6 256 320 256zM480 224v64h64V224H480z"/><path class="fa-secondary" d="M192 192c0-35.25 28.75-64 64-64h224V32c0-17.62-14.38-32-32-32H128C110.4 0 96 14.38 96 32v192h96V192zM576 160H256C238.4 160 224 174.4 224 192v32h96c33.25 0 60.63 25.38 63.75 57.88L384 416h192c17.62 0 32-14.38 32-32V192C608 174.4 593.6 160 576 160zM544 288h-64V224h64V288zM183 413.9L32 300.2v40.06l132.1 99.51c8.297 5.922 18.02 8.891 27.78 8.891c9.859 0 19.78-3.031 28.33-9.141L352 340.2V300.2l-150.7 113.5C195.7 417.7 188.3 417.7 183 413.9z"/></svg>
